src/face-positive-filled.svg

<svg viewBox="0 0 16 16" fill="none" xmlns="http://www.w3.org/2000/svg"><path fill-rule="evenodd" clip-rule="evenodd" d="M15 8C15 11.866 11.866 15 8 15C4.13401 15 1 11.866 1 8C1 4.13401 4.13401 1 8 1C11.866 1 15 4.13401 15 8ZM5.56527 7.08659C6.06953 7.08659 6.47831 6.6778 6.47831 6.17354C6.47831 5.66928 6.06953 5.2605 5.56527 5.2605C5.06101 5.2605 4.65222 5.66928 4.65222 6.17354C4.65222 6.6778 5.06101 7.08659 5.56527 7.08659ZM11.3479 6.17354C11.3479 6.6778 10.9391 7.08659 10.4348 7.08659C9.93057 7.08659 9.52179 6.6778 9.52179 6.17354C9.52179 5.66928 9.93057 5.2605 10.4348 5.2605C10.9391 5.2605 11.3479 5.66928 11.3479 6.17354ZM9.37389 10.1295C9.7134 9.8749 9.93475 9.50538 9.93475 8.98878H10.9348C10.9348 9.84174 10.5474 10.4994 9.97388 10.9295C9.41456 11.349 8.6946 11.5431 7.99997 11.5431C7.30534 11.5431 6.58538 11.349 6.02606 10.9295C5.45253 10.4994 5.06519 9.84173 5.06519 8.98877L6.06519 8.98877C6.06519 9.50538 6.28654 9.8749 6.62606 10.1295C6.97978 10.3948 7.47721 10.5431 7.99997 10.5431C8.52273 10.5431 9.02017 10.3948 9.37389 10.1295Z" fill="#111111"/></svg>

<svg viewBox="0 0 16 16" fill="none" xmlns="http://www.w3.org/2000/svg"><path fill-rule="evenodd" clip-rule="evenodd" d="M15 8A7 7 0 1 1 1 8a7 7 0 0 1 14 0Zm-9.435-.913a.913.913 0 1 0 0-1.827.913.913 0 0 0 0 1.827Zm5.783-.913a.913.913 0 1 1-1.826 0 .913.913 0 0 1 1.826 0Zm-1.974 3.955c.34-.254.56-.624.56-1.14h1c0 .853-.387 1.51-.96 1.94-.56.42-1.28.614-1.974.614-.695 0-1.415-.194-1.974-.613a2.356 2.356 0 0 1-.96-1.941h1c0 .516.22.886.56 1.14.354.266.851.414 1.374.414.523 0 1.02-.148 1.374-.413Z" fill="#111111"/></svg>
